X:3108
T:Rock my soul
C:anon.
O:USA
R:Negro spiritual, swing
F:http://abc.musicaviva.com/tunes/usa/rock-my-soul.abc
M:C
L:1/8
K:F
"F"AAA2F2FF|"F"AA Ac2BA2|"C7"GGG2E2EE|"C7"GG GB2AG2|
"F"AAA2F2FF|"F"AA Ac2BA2|"C7"c4cBG2|"F"F6 z2|
"F"A4F3F|"F"A2Ac2BA2|"C7"G4E3E|"C7"G2GB2AG2|
"F"A4F3F|"F"A2Ac2BA2|"C7"c4cBG2|"F"F6 z2|]
W:
W:
W:  From Musica Viva - http://www.musicaviva.com
W:  the Internet center for free sheet music downloads.


